X:44
T:Bill's Dream
C:Bill Monroe
N:Arr. Baldassari
R:bluegrass
L:1/8
Q:1/4=220
M:4/4
K:C
dc | "G"B2 G2 B2 G2 | Bd dB d2 g^f | "C"e2 c2 e2 c2 | eg ga g2 g2 | "G"Bd de dB GB | 
eA dA cA B2 | "D"A2 AA [A2E2] [A2F2] | [A6^F6] dc | "G"B2 G2 B2 G2 | Bd dB d2 g^f | 
"C"e2 c2 e2 c2 | eg ga g2 g2 | "G"Bd de dB GB | "D"cB AG ^FD EF | "G"G2 [_BG][=BB] [BG][BG] [BG][BG] | 
[B6B6] g^f | "C"e2 c2 e2 c2 | eg ga g4 | "G"Bd de dc Bc | d4 d2 g^f | 
"C"e2 c2 e2 c2 | eg ga g4 | "G"Bd de dc B2 | "D"A6 dc | "G"B2 G2 B2 G2 | Bd dB dd g^f | 
"C"e2 c2 e2 c2 | eg ga g2 g2 | "G"Bd de dB GB | "D"cB AG ^FD EF | "G"G2 [_BG][=BB] [BG][BG] [BG][cG] | [B8B8] |]

